assets/awselasticblockstore/original.svg

<svg height="64" viewBox="0 0 64 64" width="64" xmlns="http://www.w3.org/2000/svg"><g fill="none" fill-rule="evenodd"><path d="m0 0h64v64h-64z" fill="#7aa116"/><path d="m52 46h2v8h-8v-2h4.796l-5.549-6.341 1.506-1.318 5.247 5.997zm-32.247-.341-5.549 6.341h4.796v2h-8v-8h2v4.338l5.247-5.997zm34.247-35.659v8h-2v-4.338l-5.247 5.997-1.506-1.318 5.549-6.341h-4.796v-2zm-39.796 2 5.549 6.341-1.506 1.318-5.247-5.997v4.338h-2v-8h8v2zm18.296 12c-6.007 0-8.5-1.303-8.5-2 0-.773 2.308-2 8.5-2 5.863 0 8.5 1.169 8.5 2 0 .697-2.493 2-8.5 2m.086 19c-5.922 0-8.586-1.169-8.586-2v-16.378c2.406 1.198 6.387 1.378 8.5 1.378s6.094-.18 8.5-1.378v16.378c0 .831-2.61 2-8.414 2m-.086-25c-4.79 0-10.5.694-10.5 4v19c0 3.306 5.757 4 10.586 4 3.89 0 10.414-.52 10.414-4v-19c0-3.48-6.578-4-10.5-4" fill="#fff"/></g></svg>

<svg xmlns="http://www.w3.org/2000/svg" width="64" height="64" viewBox="0 0 64 64"><g fill="none" fill-rule="evenodd"><path fill="#7aa116" d="M0 0h64v64H0z"/><path fill="#fff" d="M52 46h2v8h-8v-2h4.796l-5.549-6.341 1.506-1.318L52 50.338zm-32.247-.341L14.204 52H19v2h-8v-8h2v4.338l5.247-5.997zM54 10v8h-2v-4.338l-5.247 5.997-1.506-1.318L50.796 12H46v-2zm-39.796 2 5.549 6.341-1.506 1.318L13 13.662V18h-2v-8h8v2zM32.5 24c-6.007 0-8.5-1.303-8.5-2 0-.773 2.308-2 8.5-2 5.863 0 8.5 1.169 8.5 2 0 .697-2.493 2-8.5 2m.086 19C26.664 43 24 41.831 24 41V24.622C26.406 25.82 30.387 26 32.5 26s6.094-.18 8.5-1.378V41c0 .831-2.61 2-8.414 2M32.5 18c-4.79 0-10.5.694-10.5 4v19c0 3.306 5.757 4 10.586 4C36.476 45 43 44.48 43 41V22c0-3.48-6.578-4-10.5-4"/></g></svg>
